SVG_Azure_Grouped/Storage/Storage Account Blob inventory.svg

<?xml version="1.0" encoding="UTF-8" standalone="no"?>
<!-- Generated by Microsoft Visio, SVG Export Storage Account Blob inventory.svg Page-1 -->

<svg
   xmlns:dc="http://purl.org/dc/elements/1.1/"
   xmlns:cc="http://creativecommons.org/ns#"
   xmlns:rdf="http://www.w3.org/1999/02/22-rdf-syntax-ns#"
   xmlns:svg="http://www.w3.org/2000/svg"
   xmlns="http://www.w3.org/2000/svg"
   xmlns:sodipodi="http://sodipodi.sourceforge.net/DTD/sodipodi-0.dtd"
   xmlns:inkscape="http://www.inkscape.org/namespaces/inkscape"
   width="0.78735679in"
   height="0.78738052in"
   viewBox="0 0 56.689597 56.691708"
   xml:space="preserve"
   class="st7"
   version="1.1"
   id="svg50"
   sodipodi:docname="Storage Account Blob inventory.svg"
   style="font-size:12px;overflow:visible;color-interpolation-filters:sRGB;fill:none;fill-rule:evenodd;stroke-linecap:square;stroke-miterlimit:3"
   inkscape:version="0.92.5 (2060ec1f9f, 2020-04-08)"><metadata
   id="metadata54"><rdf:RDF><cc:Work
       rdf:about=""><dc:format>image/svg+xml</dc:format><dc:type
         rdf:resource="http://purl.org/dc/dcmitype/StillImage" /></cc:Work></rdf:RDF></metadata><sodipodi:namedview
   pagecolor="#ffffff"
   bordercolor="#666666"
   borderopacity="1"
   objecttolerance="10"
   gridtolerance="10"
   guidetolerance="10"
   inkscape:pageopacity="0"
   inkscape:pageshadow="2"
   inkscape:window-width="640"
   inkscape:window-height="480"
   id="namedview52"
   showgrid="false"
   inkscape:zoom="1.4193119"
   inkscape:cx="37.795128"
   inkscape:cy="37.786193"
   inkscape:window-x="0"
   inkscape:window-y="0"
   inkscape:window-maximized="0"
   inkscape:current-layer="svg50" />
	<style
   type="text/css"
   id="style2">
	<![CDATA[
		.st1 {fill:#37c2b1;stroke:none;stroke-linecap:butt;stroke-width:34}
		.st2 {fill:#3cd4c2;stroke:none;stroke-linecap:butt;stroke-width:34}
		.st3 {fill:#42e8ca;stroke:none;stroke-linecap:butt;stroke-width:34}
		.st4 {fill:url(#grad0-12);stroke:none;stroke-linecap:butt;stroke-width:34}
		.st5 {fill:#f2f2f2;stroke:none;stroke-linecap:butt;stroke-width:34}
		.st6 {fill:#ffffff;stroke:none;stroke-linecap:butt;stroke-width:34}
		.st7 {fill:none;fill-rule:evenodd;font-size:12px;overflow:visible;stroke-linecap:square;stroke-miterlimit:3}
	]]>
	</style>

	<defs
   id="Patterns_And_Gradients">
		<linearGradient
   id="grad0-12"
   x1="-5.6934988e-09"
   y1="175.4408"
   x2="33.789593"
   y2="175.4408"
   gradientTransform="scale(1.6777355,0.59604151)"
   gradientUnits="userSpaceOnUse">
			<stop
   offset="0"
   stop-color="#5ea0ef"
   stop-opacity="1"
   id="stop4" />
			<stop
   offset="1"
   stop-color="#0078d4"
   stop-opacity="1"
   id="stop6" />
		</linearGradient>
	</defs>
	<g
   id="g48"
   transform="translate(-34.000441,-34.002592)">
		<title
   id="title10">Page-1</title>
		<g
   id="group20202-1"
   transform="translate(34,-34.0157)">
			<title
   id="title12">Storage Account Blob inventory.20202</title>
			<g
   id="group20203-2">
				<title
   id="title14">Sheet.20203</title>
				<g
   id="shape20204-3"
   transform="translate(16.9764,-14.7717)">
					<title
   id="title16">Sheet.20204</title>
					<path
   d="m 0,123.31 a 1.39531,1.39531 -180 0 0 1.4,1.4 h 30.7 a 1.39531,1.39531 -180 0 0 1.4,-1.4 V 84.18 A 1.39531,1.39531 -180 0 0 32.1,82.79 H 1.4 A 1.39531,1.39531 -180 0 0 0,84.18 Z"
   class="st1"
   id="path18"
   inkscape:connector-curvature="0"
   style="fill:#37c2b1;stroke:none;stroke-width:34;stroke-linecap:butt" />
				</g>
				<g
   id="shape20205-5"
   transform="translate(11.9118,-10.2488)">
					<title
   id="title21">Sheet.20205</title>
					<path
   d="m 0,123.31 a 1.39531,1.39531 -180 0 0 1.4,1.4 h 30.7 a 1.39531,1.39531 -180 0 0 1.4,-1.4 V 84.18 A 1.39531,1.39531 -180 0 0 32.1,82.79 H 1.4 A 1.39531,1.39531 -180 0 0 0,84.18 Z"
   class="st2"
   id="path23"
   inkscape:connector-curvature="0"
   style="fill:#3cd4c2;stroke:none;stroke-width:34;stroke-linecap:butt" />
				</g>
				<g
   id="shape20206-7"
   transform="translate(6.7937,-5.68189)">
					<title
   id="title26">Sheet.20206</title>
					<path
   d="m 0,123.31 a 1.39531,1.39531 -180 0 0 1.4,1.4 h 30.7 a 1.39531,1.39531 -180 0 0 1.4,-1.4 V 84.18 A 1.39531,1.39531 -180 0 0 32.1,82.79 H 1.4 A 1.39531,1.39531 -180 0 0 0,84.18 Z"
   class="st3"
   id="path28"
   inkscape:connector-curvature="0"
   style="fill:#42e8ca;stroke:none;stroke-width:34;stroke-linecap:butt" />
				</g>
				<g
   id="shape20207-9">
					<title
   id="title31">Sheet.20207</title>
					<path
   d="m 0,122.82 a 1.88981,1.88981 -180 0 0 1.89,1.89 H 54.8 a 1.88981,1.88981 -180 0 0 1.89,-1.89 V 106.46 A 1.88981,1.88981 -180 0 0 54.8,104.57 H 1.89 A 1.88981,1.88981 -180 0 0 0,106.46 Z"
   class="st4"
   id="path33"
   inkscape:connector-curvature="0"
   style="fill:url(#grad0-12);stroke:none;stroke-width:34;stroke-linecap:butt" />
				</g>
				<g
   id="shape20208-13"
   transform="translate(20.2709,-12.2583)">
					<title
   id="title36">Sheet.20208</title>
					<path
   d="m 0,123.25 a 1.45515,1.45515 -180 0 0 1.46,1.46 H 14.7 a 1.45515,1.45515 -180 0 0 1.45,-1.46 v 0 A 1.45515,1.45515 -180 0 0 14.7,121.8 H 1.46 A 1.45515,1.45515 -180 0 0 0,123.25 Z"
   class="st5"
   id="path38"
   inkscape:connector-curvature="0"
   style="fill:#f2f2f2;stroke:none;stroke-width:34;stroke-linecap:butt" />
				</g>
				<g
   id="shape20209-15"
   transform="translate(11.9118,-26.737)">
					<title
   id="title41">Sheet.20209</title>
					<path
   d="M 22.2,114.28 H 7.74 A 0.314961,0.314961 0 0 1 7.425039,113.94929 L 7.43,112.86 a 0.314961,0.314961 0 0 1 0.314961,-0.33071 L 22.2,112.53 a 0.333858,0.333858 0 0 1 0.333858,0.33071 L 22.54,113.94 a 0.333858,0.333858 0 0 1 -0.333858,0.34016 z m -17.01,1.05 v -3.86 A 0.664567,0.664567 -180 0 0 4.509685,110.81173 L 0.66,110.82 a 0.664567,0.664567 -180 0 0 -0.664567,0.66457 L 0,115.32 a 0.664567,0.664567 -180 0 0 0.664567,0.66457 L 4.51,115.99 a 0.664567,0.664567 -180 0 0 0.667717,-0.66457 z m 17.36,7.35 v -1.09 a 0.337008,0.337008 -180 0 0 -0.333858,-0.33386 L 7.74,121.26 a 0.333858,0.333858 -180 0 0 -0.314961,0.33386 L 7.43,122.67 a 0.330709,0.330709 -180 0 0 0.314961,0.33386 L 22.2,123 a 0.333858,0.333858 -180 0 0 0.333858,-0.33386 z m -17.36,1.39 v -3.86 A 0.664567,0.664567 -180 0 0 4.522283,119.54543 L 0.66,119.54 a 0.664567,0.664567 -180 0 0 -0.664567,0.66457 L 0,124.04 a 0.667717,0.667717 -180 0 0 0.664567,0.66457 L 4.51,124.71 a 0.667717,0.667717 -180 0 0 0.667717,-0.66457 z"
   class="st6"
   id="path43"
   inkscape:connector-curvature="0"
   style="fill:#ffffff;stroke:none;stroke-width:34;stroke-linecap:butt" />
				</g>
			</g>
		</g>
	</g>
</svg>

<?xml version="1.0" encoding="UTF-8" standalone="no"?>
<!DOCTYPE svg PUBLIC "-//W3C//DTD SVG 1.1//EN" "http://www.w3.org/Graphics/SVG/1.1/DTD/svg11.dtd">
<!-- Generated by Microsoft Visio, SVG Export Storage Account Blob inventory.svg Page-1 -->
<svg xmlns="http://www.w3.org/2000/svg" xmlns:xlink="http://www.w3.org/1999/xlink" xmlns:ev="http://www.w3.org/2001/xml-events"
		width="1.73185in" height="1.73206in" viewBox="0 0 124.693 124.709" xml:space="preserve" color-interpolation-filters="sRGB"
		class="st7">
	<style type="text/css">
	<![CDATA[
		.st1 {fill:#37c2b1;stroke:none;stroke-linecap:butt;stroke-width:34}
		.st2 {fill:#3cd4c2;stroke:none;stroke-linecap:butt;stroke-width:34}
		.st3 {fill:#42e8ca;stroke:none;stroke-linecap:butt;stroke-width:34}
		.st4 {fill:url(#grad0-12);stroke:none;stroke-linecap:butt;stroke-width:34}
		.st5 {fill:#f2f2f2;stroke:none;stroke-linecap:butt;stroke-width:34}
		.st6 {fill:#ffffff;stroke:none;stroke-linecap:butt;stroke-width:34}
		.st7 {fill:none;fill-rule:evenodd;font-size:12px;overflow:visible;stroke-linecap:square;stroke-miterlimit:3}
	]]>
	</style>

	<defs id="Patterns_And_Gradients">
		<linearGradient id="grad0-12" x1="0" y1="0" x2="1" y2="0" gradientTransform="rotate(90 0.5 0.5)">
			<stop offset="0" stop-color="#5ea0ef" stop-opacity="1"/>
			<stop offset="1" stop-color="#0078d4" stop-opacity="1"/>
		</linearGradient>
	</defs>
	<g>
		<title>Page-1</title>
		<g id="group19747-1" transform="translate(34,-34.0157)">
			<title>Storage Account Blob inventory.19747</title>
			<g id="group19748-2">
				<title>Sheet.19748</title>
				<g id="shape19749-3" transform="translate(16.9764,-14.7717)">
					<title>Sheet.19749</title>
					<path d="M0 123.31 A1.39531 1.39531 -180 0 0 1.4 124.71 L32.1 124.71 A1.39531 1.39531 -180 0 0 33.5 123.31 L33.5
								 84.18 A1.39531 1.39531 -180 0 0 32.1 82.79 L1.4 82.79 A1.39531 1.39531 -180 0 0 0 84.18 L0 123.31
								 Z" class="st1"/>
				</g>
				<g id="shape19750-5" transform="translate(11.9118,-10.2488)">
					<title>Sheet.19750</title>
					<path d="M0 123.31 A1.39531 1.39531 -180 0 0 1.4 124.71 L32.1 124.71 A1.39531 1.39531 -180 0 0 33.5 123.31 L33.5
								 84.18 A1.39531 1.39531 -180 0 0 32.1 82.79 L1.4 82.79 A1.39531 1.39531 -180 0 0 0 84.18 L0 123.31
								 Z" class="st2"/>
				</g>
				<g id="shape19751-7" transform="translate(6.7937,-5.68189)">
					<title>Sheet.19751</title>
					<path d="M0 123.31 A1.39531 1.39531 -180 0 0 1.4 124.71 L32.1 124.71 A1.39531 1.39531 -180 0 0 33.5 123.31 L33.5
								 84.18 A1.39531 1.39531 -180 0 0 32.1 82.79 L1.4 82.79 A1.39531 1.39531 -180 0 0 0 84.18 L0 123.31
								 Z" class="st3"/>
				</g>
				<g id="shape19752-9">
					<title>Sheet.19752</title>
					<path d="M0 122.82 A1.88981 1.88981 -180 0 0 1.89 124.71 L54.8 124.71 A1.88981 1.88981 -180 0 0 56.69 122.82
								 L56.69 106.46 A1.88981 1.88981 -180 0 0 54.8 104.57 L1.89 104.57 A1.88981 1.88981 -180 0 0 0 106.46
								 L0 122.82 Z" class="st4"/>
				</g>
				<g id="shape19753-13" transform="translate(20.2709,-12.2583)">
					<title>Sheet.19753</title>
					<path d="M0 123.25 A1.45515 1.45515 -180 0 0 1.46 124.71 L14.7 124.71 A1.45515 1.45515 -180 0 0 16.15 123.25
								 L16.15 123.25 A1.45515 1.45515 -180 0 0 14.7 121.8 L1.46 121.8 A1.45515 1.45515 -180 0 0 0 123.25
								 L0 123.25 Z" class="st5"/>
				</g>
				<g id="shape19754-15" transform="translate(11.9118,-26.737)">
					<title>Sheet.19754</title>
					<path d="M22.2 114.28 L7.74 114.28 a0.314961 0.314961 0 0 1 -0.314961 -0.330709 L7.43 112.86 a0.314961 0.314961
								 0 0 1 0.314961 -0.330709 L22.2 112.53 a0.333858 0.333858 0 0 1 0.333858 0.330709 L22.54 113.94 a0.333858
								 0.333858 0 0 1 -0.333858 0.340157 ZM5.19 115.33 L5.19 111.47 a0.664567 0.664567 -180 0 0 -0.680315
								 -0.658268 L0.66 110.82 a0.664567 0.664567 -180 0 0 -0.664567 0.664567 L0 115.32 a0.664567 0.664567
								 -180 0 0 0.664567 0.664567 L4.51 115.99 a0.664567 0.664567 -180 0 0 0.667717 -0.664567 L5.19 115.33
								 ZM22.55 122.68 L22.55 121.59 a0.337008 0.337008 -180 0 0 -0.333858 -0.333858 L7.74 121.26 a0.333858
								 0.333858 -180 0 0 -0.314961 0.333858 L7.43 122.67 a0.330709 0.330709 -180 0 0 0.314961 0.333858
								 L22.2 123 a0.333858 0.333858 -180 0 0 0.333858 -0.333858 L22.55 122.68 ZM5.19 124.07 L5.19 120.21
								 a0.664567 0.664567 -180 0 0 -0.667717 -0.664567 L0.66 119.54 a0.664567 0.664567 -180 0 0 -0.664567
								 0.664567 L0 124.04 a0.667717 0.667717 -180 0 0 0.664567 0.664567 L4.51 124.71 a0.667717 0.667717
								 -180 0 0 0.667717 -0.664567 L5.19 124.07 Z" class="st6"/>
				</g>
			</g>
		</g>
	</g>
</svg>
